dist/icons/svgs/stopwatch-outline.svg

<svg xmlns="http://www.w3.org/2000/svg" width="24" height="24" fill="currentcolor" class="icon-stopwatch-outline" viewBox="0 0 24 24">
  <path d="M8.875 2.9375C8.875 2.42969 9.26562 2 9.8125 2H14.1875C14.6953 2 15.125 2.42969 15.125 2.9375C15.125 3.48438 14.6953 3.875 14.1875 3.875H12.9375V5.82812C14.6172 6.02344 16.1406 6.72656 17.3516 7.82031L18.5234 6.64844C18.875 6.29688 19.4609 6.29688 19.8125 6.64844C20.2031 7.03906 20.2031 7.625 19.8125 7.97656L18.6016 9.1875C19.5391 10.5156 20.125 12.1562 20.125 13.875C20.125 18.3672 16.4531 22 12 22C7.50781 22 3.875 18.3672 3.875 13.875C3.875 9.73438 7 6.29688 11.0625 5.82812V3.875H9.8125C9.26562 3.875 8.875 3.48438 8.875 2.9375ZM12 20.125C14.2266 20.125 16.2578 18.9531 17.3906 17C18.5234 15.0859 18.5234 12.7031 17.3906 10.75C16.2578 8.83594 14.2266 7.625 12 7.625C9.73438 7.625 7.70312 8.83594 6.57031 10.75C5.4375 12.7031 5.4375 15.0859 6.57031 17C7.70312 18.9531 9.73438 20.125 12 20.125ZM12.9375 10.4375V14.5C12.9375 15.0469 12.5078 15.4375 12 15.4375C11.4531 15.4375 11.0625 15.0469 11.0625 14.5V10.4375C11.0625 9.92969 11.4531 9.5 12 9.5C12.5078 9.5 12.9375 9.92969 12.9375 10.4375Z"/>
</svg>

<svg xmlns="http://www.w3.org/2000/svg" width="24" height="24" fill="currentColor" class="icon-stopwatch-outline" viewBox="0 0 24 24">
  <path d="M8.875 2.938c0-.508.39-.938.938-.938h4.374a.95.95 0 0 1 .938.938c0 .546-.43.937-.937.937h-1.25v1.953a7.9 7.9 0 0 1 4.414 1.992l1.171-1.172a.92.92 0 0 1 1.29 0c.39.391.39.977 0 1.329l-1.211 1.21c.937 1.329 1.523 2.97 1.523 4.688C20.125 18.367 16.453 22 12 22a8.12 8.12 0 0 1-8.125-8.125c0-4.14 3.125-7.578 7.188-8.047V3.875h-1.25c-.547 0-.938-.39-.938-.937M12 20.125c2.227 0 4.258-1.172 5.39-3.125 1.133-1.914 1.133-4.297 0-6.25-1.132-1.914-3.163-3.125-5.39-3.125-2.266 0-4.297 1.21-5.43 3.125-1.133 1.953-1.133 4.336 0 6.25A6.22 6.22 0 0 0 12 20.125m.938-9.687V14.5c0 .547-.43.938-.938.938-.547 0-.937-.391-.937-.938v-4.062c0-.508.39-.938.937-.938a.95.95 0 0 1 .938.938"/>
</svg>
